X:66
T: Graf und Nonne (Die Nonne)
N: Q0155C
O: Suedosteuropa, Jugoslawien, Gottschee
R: Ballade, Standesunterschied, vergebliche Werbung, Liebes - Lied
M: 6/8
L: 1/8
K: G
D | B2AG2D | D2GG2
G | A2AA2A | B2z3
D | B2BB2B | B2dc2
B | A2GF2E | D2GG2
D | G2ABB2AB | G2z3

